src/icons/editor/glyph/RowAddAfterIcon.svg

<svg width="24" height="24" viewBox="0 0 24 24" fill="none" xmlns="http://www.w3.org/2000/svg">
<path fill-rule="evenodd" clip-rule="evenodd" d="M5 3C3.89543 3 3 3.89543 3 5L3 9C3 10.1046 3.89543 11 5 11L19 11C20.1046 11 21 10.1046 21 9L21 5C21 3.89543 20.1046 3 19 3L5 3ZM5 15L5 19L7 19L7 21L5 21C3.89543 21 3 20.1046 3 19L3 15C3 13.8954 3.89543 13 5 13L7 13L7 15L5 15ZM19 15L17 15L17 13L19 13C20.1046 13 21 13.8954 21 15L21 19C21 20.1046 20.1046 21 19 21L17 21L17 19L19 19L19 15ZM15 16L13 16L13 14L11 14L11 16L9 16L9 18L11 18L11 20L13 20L13 18L15 18L15 16Z" fill="currentColor"/>
</svg>

<svg xmlns="http://www.w3.org/2000/svg" width="24" height="24" fill="currentColor" viewBox="0 0 24 24">
  <path fill-rule="evenodd" d="M5 3a2 2 0 0 0-2 2v4a2 2 0 0 0 2 2h14a2 2 0 0 0 2-2V5a2 2 0 0 0-2-2H5Zm0 12v4h2v2H5a2 2 0 0 1-2-2v-4a2 2 0 0 1 2-2h2v2H5Zm14 0h-2v-2h2a2 2 0 0 1 2 2v4a2 2 0 0 1-2 2h-2v-2h2v-4Zm-4 1h-2v-2h-2v2H9v2h2v2h2v-2h2v-2Z" clip-rule="evenodd"/>
</svg>
